X: 15650
T: Going To Mass Last Sunday
R: jig
M: 6/8
K: Ddorian
|:DED D E/F/G|AGA cde|dcA AGE|CDE ~G2E|
DED D E/F/G|AGA cde|dcA GEC|1 DED D2A,:|2 DED D2d|
|:dDE F3|dcA ~c3|dcA AGE|CDE AGA|
DED D E/F/G|AGA cde|dcA GEC|1 DED D2d:|2 DED D2A,||

